X: 1
T: The Perrie Werrie
N: Reel
S: Jack Campin <jc:purr.demon.co.uk> scots-l 2001-6-27
B: NLS Acc.11516/9 (John Wotherspoon's Book, 1840)
N: a fiddle MS from GS MacLennan's papers
N: I think this was copied from Malcolm Keith's collection
M: C
L: 1/8
K: Gmix
c | B(GG>)A  G>AGc | B(GG>)B gdec | BGGA   G>AGB | AFFA c3 :|
A | B(dd>)e ~d>edc | B(dd>)e gdec | Bdd>e ~d>edB | AFFA c3A |
    B(dd>)e  dedc  | Bdde    g3 d | gbeg   dgBd  | AFFA c3 |]
